plasma/desktoptheme/Materia-Color/icons/list.svg

<svg xmlns="http://www.w3.org/2000/svg" width="32" height="32" version="1.1">
 <defs id="materia">
  <style id="current-color-scheme" type="text/css">
   .ColorScheme-Background {color:#181818; } .ColorScheme-ButtonBackground { color:#343434; } .ColorScheme-Highlight { color:#4285f4; } .ColorScheme-Text { color:#dfdfdf; } .ColorScheme-ViewBackground { color:#242424; } .ColorScheme-NegativeText { color:#f44336; } .ColorScheme-PositiveText { color:#4caf50; } .ColorScheme-NeutralText { color:#ff9800; }
  </style>
 </defs>
 <g id="22-22-list-add" transform="translate(-285.00081,-16.99666)">
  <path style="opacity:0.001" d="m 285.00081,-5.00334 h 22 v 22 h -22 z"/>
  <path style="fill:currentColor" class="ColorScheme-Text" transform="translate(285.00081,-5.00334)" d="M 9,3 V 9 H 3 v 4 h 6 v 6 h 4 v -6 h 6 V 9 H 13 V 3 Z"/>
 </g>
 <g id="list-add" transform="translate(3.6590725e-6)">
  <path style="opacity:0.001" d="M -4.318145e-6,-4.8197e-7 H 31.999997 V 32.000001 H -4.318145e-6 Z"/>
  <path style="fill:currentColor" class="ColorScheme-Text" d="m 13,4 v 9 H 4.0000001 v 6 H 13 v 9 h 6 v -9 h 9 V 13 H 19 V 4 Z"/>
 </g>
 <g id="22-22-list-remove" transform="translate(-253.00081,-16.99666)">
  <path style="opacity:0.001" d="m 285.00081,-5.00334 h 22 v 22 h -22 z"/>
  <path style="fill:currentColor" class="ColorScheme-Text" transform="translate(285.00081,-5.00334)" d="m 3,9 v 4 H 19 V 9 Z"/>
 </g>
 <g id="list-remove" transform="translate(32.000005)">
  <path style="opacity:0.001" d="M -4.318145e-6,-4.8197e-7 H 31.999997 V 32.000001 H -4.318145e-6 Z"/>
  <path style="fill:currentColor" class="ColorScheme-Text" d="m 4.0000001,13 v 6 H 28 v -6 z"/>
 </g>
</svg>

<?xml version="1.0" encoding="UTF-8"?>
<svg width="32" height="32" version="1.1" xmlns="http://www.w3.org/2000/svg">
 <defs id="materia">
  <style id="current-color-scheme" type="text/css">.ColorScheme-Background {color:#181818; } .ColorScheme-ButtonBackground { color:#343434; } .ColorScheme-Highlight { color:#4285f4; } .ColorScheme-Text { color:#dfdfdf; } .ColorScheme-ViewBackground { color:#242424; } .ColorScheme-NegativeText { color:#f44336; } .ColorScheme-PositiveText { color:#4caf50; } .ColorScheme-NeutralText { color:#ff9800; }</style>
 </defs>
 <g id="22-22-list-add" transform="translate(-285 -16.997)">
  <path d="m285-5.0033h22v22h-22z" opacity=".001"/>
  <path class="ColorScheme-Text" transform="translate(285 -5.0033)" d="m9 3v6h-6v4h6v6h4v-6h6v-4h-6v-6z" fill="currentColor"/>
 </g>
 <g id="list-add" transform="translate(3.6591e-6)">
  <path d="m-4.3181e-6 -4.8197e-7h32v32h-32z" opacity=".001"/>
  <path class="ColorScheme-Text" d="m13 4v9h-9v6h9v9h6v-9h9v-6h-9v-9z" fill="currentColor"/>
 </g>
 <g id="22-22-list-remove" transform="translate(-253 -16.997)">
  <path d="m285-5.0033h22v22h-22z" opacity=".001"/>
  <path class="ColorScheme-Text" transform="translate(285 -5.0033)" d="m3 9v4h16v-4z" fill="currentColor"/>
 </g>
 <g id="list-remove" transform="translate(32)">
  <path d="m-4.3181e-6 -4.8197e-7h32v32h-32z" opacity=".001"/>
  <path class="ColorScheme-Text" d="m4 13v6h24v-6z" fill="currentColor"/>
 </g>
</svg>
